X:398
T: ZERDRUECK DIE THRAENE NICHT IN DEINEM AUGE
N: B0471
O: Europa, Mitteleuropa, Deutschland, Nassau, Rheinland; Elsass
R: Liebes - Lied, Leid, Klage
M: 4/4
L: 1/8
K: F
CFG | A3AAcBA | c2G2z
BAG | F3FECDE | F4z
CFG | A3AAcBA | c2G2z
BAG | F3FECDE | F4z
GGG | A3AGGFD | C2EGc
GEc | =B3AGGFD | C4z
CFG | A3AAcBA | c2G2z
BAG | F3FECDE | F4z

